img/brand/logo/SVG/default.svg

<?xml version="1.0" encoding="UTF-8" standalone="no"?>
<!DOCTYPE svg PUBLIC "-//W3C//DTD SVG 1.1//EN" "http://www.w3.org/Graphics/SVG/1.1/DTD/svg11.dtd">
<svg width="100%" height="100%" viewBox="0 0 1080 1080" version="1.1" xmlns="http://www.w3.org/2000/svg" xmlns:xlink="http://www.w3.org/1999/xlink" xml:space="preserve" xmlns:serif="http://www.serif.com/" style="fill-rule:evenodd;clip-rule:evenodd;stroke-linejoin:round;stroke-miterlimit:2;">
    <g transform="matrix(1,0,0,1,-0.01,-71.8392)">
        <path d="M798.89,633.48L790.43,633.48L790.43,699.64L798.89,699.64C805.81,699.64 811.97,697.33 815.82,691.95C819.67,686.57 822,678.87 822,668.87L822,664.25C822,654.25 819.69,646.56 815.85,641.17C812.01,635.78 806.58,633.48 798.89,633.48Z" style="fill:white;fill-rule:nonzero;"/>
    </g>
    <g transform="matrix(1,0,0,1,-0.01,-71.8392)">
        <path d="M10.3,565.77L10.3,771.19L1069.7,771.19L1069.7,565.77L10.3,565.77ZM164.94,718.88L95.7,718.88L95.7,614.24L121.08,614.24L121.08,699.64L164.94,699.64L164.94,718.88ZM291.88,633.48L245,633.48L245,655.79L285,655.79L285,674.25L245,674.25L245,699.64L291.93,699.64L291.93,718.88L219.56,718.88L219.56,614.24L291.88,614.24L291.88,633.48ZM432.67,705.8L431.91,705.8C428.06,710.41 422.67,713.49 414.98,716.57C407.015,719.089 398.714,720.384 390.36,720.41C376.51,720.41 365.74,716.57 357.28,708.1C348.82,699.63 344.97,688.1 344.2,672.71L344.2,663.48C344.2,653.48 345.74,644.25 349.58,636.55C353.42,628.85 358.82,622.71 364.97,618.86C372.244,614.756 380.469,612.632 388.82,612.7C401.9,612.7 411.9,615.78 419.6,621.94C426.52,628.09 431.14,636.55 431.91,648.86L408.05,648.86C407.29,642.71 404.98,638.86 402.67,636.55C399.117,633.92 394.778,632.567 390.36,632.71C384.2,632.71 378.82,635.02 375.74,640.4C372.66,645.78 370.36,653.48 370.36,663.48L370.36,669.64C370.36,680.41 371.9,688.1 375.74,693.49C379.58,698.88 384.97,701.18 392.67,701.18C399.59,701.18 404.21,699.64 407.29,696.56L407.29,680.41L389.59,680.41L389.59,662.71L432.67,662.71L432.67,705.8ZM562.67,633.48L515.77,633.48L515.77,655.79L555.77,655.79L555.77,674.25L515.77,674.25L515.77,699.64L562.7,699.64L562.7,718.88L490.38,718.88L490.38,614.24L562.7,614.24L562.67,633.48ZM705,718.88L679.64,718.88L642.71,653.48L642.71,718.88L617.32,718.88L617.32,614.24L642.71,614.24L679.64,679.64L679.64,614.24L705,614.24L705,718.88ZM847.36,668.1C847.329,677.175 845.221,686.124 841.2,694.26C837.459,701.729 831.564,707.91 824.28,712C816.728,716.105 808.255,718.225 799.66,718.16L765.81,718.16L765.81,614.24L799.66,614.24C808.255,614.175 816.728,616.295 824.28,620.4C831.559,624.474 837.454,630.637 841.2,638.09C845.218,645.952 847.329,654.651 847.36,663.48L847.36,668.1ZM974.3,712.72C967.38,718.11 958.15,720.41 945.84,720.41C937.908,720.522 930.041,718.95 922.76,715.8C915.83,712.72 910.45,708.87 907.37,703.49C903.98,697.909 902.127,691.529 902,685L927.39,685C927.39,690.39 928.93,695 932.01,697.31C935.09,699.62 939.7,701.16 945.86,701.16C949.7,701.16 953.55,700.39 955.86,698.08C957.777,696.284 958.889,693.787 958.94,691.16C958.94,687.31 957.4,684.23 955.09,682.7C952.78,680.39 948.17,678.85 941.24,676.54C934.31,674.23 928.93,671.93 925.08,670.39C911.24,663.46 905.08,654.23 905.08,642.69C905.08,636.53 906.62,631.92 910.47,627.3C913.54,622.69 918.93,619.61 925.08,617.3C931.717,614.771 938.758,613.466 945.86,613.45C952.716,613.387 959.517,614.696 965.86,617.3C971.712,619.357 976.631,623.456 979.71,628.84C982.79,633.46 984.33,639.61 984.33,645.77L958.92,645.77C959.101,642.045 957.702,638.412 955.07,635.77C952.76,633.46 948.91,631.92 944.3,631.92C939.69,631.92 936.6,632.69 933.53,635C931.22,637.3 929.68,639.61 929.68,642.69C929.85,645.66 931.622,648.314 934.3,649.61C937.37,651.92 941.99,654.23 949.68,656.54C956.61,658.85 962.76,661.15 967.38,664.23C978.92,670.39 984.31,679.62 984.31,691.16C984.31,700.41 981.23,707.34 974.3,712.72Z" style="fill:white;fill-rule:nonzero;"/>
    </g>
    <g transform="matrix(1,0,0,1,-0.01,-71.8392)">
        <path d="M191.86,326.5L111.08,326.5L111.08,545.77L91.08,545.77L91.08,326.5L10.3,326.5L10.3,309.58L191.86,309.58L191.86,326.5Z" style="fill:white;fill-rule:nonzero;"/>
    </g>
    <g transform="matrix(1,0,0,1,-0.01,-71.8392)">
        <path d="M376.51,432.67L266.51,432.67L266.51,528.84L393.51,528.84L393.51,545.77L246.49,545.77L246.49,309.58L392.67,309.58L392.67,326.5L266.49,326.5L266.49,415.75L376.49,415.75L376.51,432.67Z" style="fill:white;fill-rule:nonzero;"/>
    </g>
    <g transform="matrix(1,0,0,1,-0.01,-71.8392)">
        <path d="M615,326.5L534.23,326.5L534.23,545.77L514.23,545.77L514.23,326.5L433.44,326.5L433.44,309.58L615,309.58L615,326.5Z" style="fill:white;fill-rule:nonzero;"/>
    </g>
    <g transform="matrix(1,0,0,1,-0.01,-71.8392)">
        <path d="M758.11,447.29L689.64,447.29L689.64,545.77L669.64,545.77L669.64,309.58L746.57,309.58C771.96,309.58 791.2,315.73 805.81,328.04C819.66,340.35 827.36,357.28 827.36,378.82C827.507,393.225 822.91,407.285 814.28,418.82C805.04,430.36 793.5,438.05 778.89,442.67L838.13,543.45L838.13,545.76L816.58,545.76L758.11,447.29ZM688.87,430.37L750.42,430.37C767.35,430.37 780.42,425.75 790.42,415.75C800.42,406.52 805.8,394.21 805.8,378.82C805.8,361.89 800.42,349.58 789.65,340.35C778.88,331.12 764.27,326.5 745,326.5L688.87,326.5L688.87,430.37Z" style="fill:white;fill-rule:nonzero;"/>
    </g>
    <g transform="matrix(1,0,0,1,-0.01,-71.8392)">
        <path d="M1024.31,478.84L917.37,478.84L892.75,545L872,545L961.24,308.81L980.48,308.81L1069.72,545.81L1048.95,545.81L1024.31,478.84ZM923.53,462.68L1018.16,462.68L970.46,334.2L923.53,462.68Z" style="fill:white;fill-rule:nonzero;"/>
    </g>
    <g transform="matrix(13.8867,0,0,13.8867,-1706.93,-8000.63)">
        <text x="124.28px" y="636.662px" style="font-family:'Tahoma-Bold', 'Tahoma', sans-serif;font-weight:700;font-size:12px;fill:url(#_Linear1);">U<tspan x="134.903px 143.528px 152.633px 160.192px 172.667px 182.639px 191.745px " y="636.662px 636.662px 636.662px 636.662px 636.662px 636.662px 636.662px ">LTIMATE</tspan></text>
    </g>
    <defs>
        <linearGradient id="_Linear1" x1="0" y1="0" x2="1" y2="0" gradientUnits="userSpaceOnUse" gradientTransform="matrix(73.4883,0,0,8.90625,125.059,632.391)"><stop offset="0" style="stop-color:rgb(221,3,3);stop-opacity:1"/><stop offset="0.2" style="stop-color:rgb(245,135,0);stop-opacity:1"/><stop offset="0.4" style="stop-color:rgb(245,228,0);stop-opacity:1"/><stop offset="0.6" style="stop-color:rgb(0,122,37);stop-opacity:1"/><stop offset="0.8" style="stop-color:rgb(0,73,245);stop-opacity:1"/><stop offset="1" style="stop-color:rgb(117,0,138);stop-opacity:1"/></linearGradient>
    </defs>
</svg>

<svg id="Layer_1" data-name="Layer 1" xmlns="http://www.w3.org/2000/svg" width="1080" height="1080" viewBox="0 0 1080 1080"><defs><style>.cls-1{fill:#fff;}</style></defs><path class="cls-1" d="M798.89,633.48h-8.46v66.16h8.46c6.92,0,13.08-2.31,16.93-7.69S822,678.87,822,668.87v-4.62c0-10-2.31-17.69-6.15-23.08S806.58,633.48,798.89,633.48Z"/><path class="cls-1" d="M10.3,565.77V771.19H1069.7V565.77ZM164.94,718.88H95.7V614.24h25.38v85.4h43.86Zm126.94-85.4H245v22.31h40v18.46H245v25.39h46.93v19.24H219.56V614.24h72.32ZM432.67,705.8h-.76c-3.85,4.61-9.24,7.69-16.93,10.77a82.51,82.51,0,0,1-24.62,3.84c-13.85,0-24.62-3.84-33.08-12.31s-12.31-20-13.08-35.39v-9.23c0-10,1.54-19.23,5.38-26.93s9.24-13.84,15.39-17.69a47.74,47.74,0,0,1,23.85-6.16c13.08,0,23.08,3.08,30.78,9.24,6.92,6.15,11.54,14.61,12.31,26.92H408.05c-.76-6.15-3.07-10-5.38-12.31a19.62,19.62,0,0,0-12.31-3.84c-6.16,0-11.54,2.31-14.62,7.69s-5.38,13.08-5.38,23.08v6.16c0,10.77,1.54,18.46,5.38,23.85s9.23,7.69,16.93,7.69c6.92,0,11.54-1.54,14.62-4.62V680.41h-17.7v-17.7h43.08Zm130-72.32H515.77v22.31h40v18.46h-40v25.39H562.7v19.24H490.38V614.24H562.7ZM705,718.88H679.64l-36.93-65.4v65.4H617.32V614.24h25.39l36.93,65.4v-65.4H705ZM847.36,668.1a59.5,59.5,0,0,1-6.16,26.16A41.83,41.83,0,0,1,824.28,712a50.74,50.74,0,0,1-24.62,6.16H765.81V614.24h33.85a50.74,50.74,0,0,1,24.62,6.16,41.77,41.77,0,0,1,16.92,17.69,56.22,56.22,0,0,1,6.16,25.39ZM974.3,712.72c-6.92,5.39-16.15,7.69-28.46,7.69a56.13,56.13,0,0,1-23.08-4.61c-6.93-3.08-12.31-6.93-15.39-12.31A37,37,0,0,1,902,685h25.39c0,5.39,1.54,10,4.62,12.31s7.69,3.85,13.85,3.85c3.84,0,7.69-.77,10-3.08a9.74,9.74,0,0,0,3.08-6.92c0-3.85-1.54-6.93-3.85-8.46-2.31-2.31-6.92-3.85-13.85-6.16s-12.31-4.61-16.16-6.15c-13.84-6.93-20-16.16-20-27.7,0-6.16,1.54-10.77,5.39-15.39,3.07-4.61,8.46-7.69,14.61-10a58.73,58.73,0,0,1,20.78-3.85,51.43,51.43,0,0,1,20,3.85,25.82,25.82,0,0,1,13.85,11.54c3.08,4.62,4.62,10.77,4.62,16.93H958.92a13.26,13.26,0,0,0-3.85-10c-2.31-2.31-6.16-3.85-10.77-3.85s-7.7.77-10.77,3.08c-2.31,2.3-3.85,4.61-3.85,7.69a8.21,8.21,0,0,0,4.62,6.92c3.07,2.31,7.69,4.62,15.38,6.93,6.93,2.31,13.08,4.61,17.7,7.69,11.54,6.16,16.93,15.39,16.93,26.93C984.31,700.41,981.23,707.34,974.3,712.72Z"/><path class="cls-1" d="M191.86,326.5H111.08V545.77h-20V326.5H10.3V309.58H191.86V326.5Z"/><path class="cls-1" d="M376.51,432.67h-110v96.17h127v16.93H246.49V309.58H392.67V326.5H266.49v89.25h110Z"/><path class="cls-1" d="M615,326.5H534.23V545.77h-20V326.5H433.44V309.58H615Z"/><path class="cls-1" d="M758.11,447.29H689.64v98.48h-20V309.58h76.93c25.39,0,44.63,6.15,59.24,18.46,13.85,12.31,21.55,29.24,21.55,50.78a65.65,65.65,0,0,1-13.08,40c-9.24,11.54-20.78,19.23-35.39,23.85l59.24,100.78v2.31H816.58Zm-68.47-16.92h60.78c16.93,0,30-4.62,40-14.62,10-9.23,15.38-21.54,15.38-36.93,0-16.93-5.38-29.24-16.15-38.47S764.27,326.5,745,326.5H688.87V430.37Z"/><path class="cls-1" d="M1024.31,478.84H917.37L892.75,545H872l89.24-236.19h19.24l89.24,237h-20.77ZM923.53,462.68h94.63L970.46,334.2Z"/></svg>
